X:0497
T:Come now for Jest & smiling.
M:C
L:1/8
Q:1/2=132 "Lively"
I: :: ::
Z:Jack Campin * www.campin.me.uk * 2009
K:D
A2|d2d2 e3  e|f4   f2e2 |f2e2  f2^g2|a4 a2
ef|g2g2 f2 d2|e2c2 A2ag |f2g2 Te3  d|d6 :|
f2|e2a2 a2^g2|a6     e>f|g2g2  f3  e|e6
ag|f2d2 a4   |ABcd efg2 |f3 g Te3  d|d6 :|

